static/card-icons/review-code.svg

<svg height="682.66669" viewBox="0 0 682.66669 682.66669" width="682.66669" xmlns="http://www.w3.org/2000/svg"><g style="fill:none;stroke:#000;stroke-width:30;stroke-linecap:round;stroke-linejoin:round;stroke-miterlimit:10"><path d="m0 0c0-49.706 40.294-90 90-90s90 40.294 90 90-40.294 90-90 90-90-40.294-90-90z" transform="matrix(1.3333333 0 0 -1.3333333 342.6666581 462.6666755)"/><path d="m0 0 59.983-59.983c5.86-5.86 13.536-8.789 21.211-8.789 7.676 0 15.352 2.929 21.211 8.789 11.719 11.718 11.719 30.703 0 42.421l-59.983 59.984" transform="matrix(1.3333333 0 0 -1.3333333 514.40758713981 570.97000612575)"/><path d="m0 0h-242v332h362v-242" transform="matrix(1.3333333 0 0 -1.3333333 342.6666581 462.6666755)"/><path d="m0 0h362" transform="matrix(1.3333333 0 0 -1.3333333 19.9999995 100.0000179)"/><path d="m0 0v60" transform="matrix(1.3333333 0 0 -1.3333333 422.6666561 100.0000179)"/><path d="m0 0 30 90" transform="matrix(1.3333333 0 0 -1.3333333 241.3333273 342.6666785)"/><path d="m0 0-61 45 61 45" transform="matrix(1.3333333 0 0 -1.3333333 181.3333288 342.6666785)"/><path d="m0 0 60 45-60 45" transform="matrix(1.3333333 0 0 -1.3333333 342.6666581 342.6666785)"/></g></svg>

<?xml version="1.0" encoding="UTF-8" standalone="no"?>
<!-- Created with Inkscape (http://www.inkscape.org/) -->

<svg
   version="1.1"
   id="svg3321"
   xml:space="preserve"
   width="682.66669"
   height="682.66669"
   viewBox="0 0 682.66669 682.66669"
   xmlns="http://www.w3.org/2000/svg"
   xmlns:svg="http://www.w3.org/2000/svg"><defs
     id="defs3325"><clipPath
       clipPathUnits="userSpaceOnUse"
       id="clipPath3335"><path
         d="M 0,512 H 512 V 0 H 0 Z"
         id="path3333" /></clipPath></defs><g
     id="g3327"
     transform="matrix(1.3333333,0,0,-1.3333333,0,682.66667)"><g
       id="g3329"><g
         id="g3331"
         clipPath="url(#clipPath3335)"><g
           id="g3337"
           transform="translate(257,165)"><path
             d="m 0,0 c 0,-49.706 40.294,-90 90,-90 49.706,0 90,40.294 90,90 0,49.706 -40.294,90 -90,90 C 40.294,90 0,49.706 0,0 Z"
             style="fill:none;stroke:#000000;stroke-width:30;stroke-linecap:round;stroke-linejoin:round;stroke-miterlimit:10;stroke-dasharray:none;stroke-opacity:1"
             id="path3339" /></g><g
           id="g3341"
           transform="translate(385.8057,83.7725)"><path
             d="m 0,0 59.983,-59.983 c 5.86,-5.86 13.536,-8.789 21.211,-8.789 7.676,0 15.352,2.929 21.211,8.789 11.719,11.718 11.719,30.703 0,42.421 L 42.422,42.422"
             style="fill:none;stroke:#000000;stroke-width:30;stroke-linecap:round;stroke-linejoin:round;stroke-miterlimit:10;stroke-dasharray:none;stroke-opacity:1"
             id="path3343" /></g><g
           id="g3345"
           transform="translate(257,165)"><path
             d="M 0,0 H -242 V 332 H 120 V 90"
             style="fill:none;stroke:#000000;stroke-width:30;stroke-linecap:round;stroke-linejoin:round;stroke-miterlimit:10;stroke-dasharray:none;stroke-opacity:1"
             id="path3347" /></g><g
           id="g3349"
           transform="translate(15,437)"><path
             d="M 0,0 H 362"
             style="fill:none;stroke:#000000;stroke-width:30;stroke-linecap:round;stroke-linejoin:round;stroke-miterlimit:10;stroke-dasharray:none;stroke-opacity:1"
             id="path3351" /></g><g
           id="g3353"
           transform="translate(317,437)"><path
             d="M 0,0 V 60"
             style="fill:none;stroke:#000000;stroke-width:30;stroke-linecap:round;stroke-linejoin:round;stroke-miterlimit:10;stroke-dasharray:none;stroke-opacity:1"
             id="path3355" /></g><g
           id="g3357"
           transform="translate(181,255)"><path
             d="M 0,0 30,90"
             style="fill:none;stroke:#000000;stroke-width:30;stroke-linecap:round;stroke-linejoin:round;stroke-miterlimit:10;stroke-dasharray:none;stroke-opacity:1"
             id="path3359" /></g><g
           id="g3361"
           transform="translate(136,255)"><path
             d="M 0,0 -61,45 0,90"
             style="fill:none;stroke:#000000;stroke-width:30;stroke-linecap:round;stroke-linejoin:round;stroke-miterlimit:10;stroke-dasharray:none;stroke-opacity:1"
             id="path3363" /></g><g
           id="g3365"
           transform="translate(257,255)"><path
             d="M 0,0 60,45 0,90"
             style="fill:none;stroke:#000000;stroke-width:30;stroke-linecap:round;stroke-linejoin:round;stroke-miterlimit:10;stroke-dasharray:none;stroke-opacity:1"
             id="path3367" /></g></g></g></g></svg>
